X: 30489
T: Old, The
R: jig
M: 6/8
K: Dmajor
DFA BAF|AdF E2D|BAB dAF|EFE EDB,|
DFA BAF|AdF E2D|BAB dAF|EDD D3:|
|:faa bag|fed Add|faa baf|fed e3|
faa bag|fed BAF|ABc dAF|EDD D3:|

